src/assets/img/icons/favorite.svg

<svg width="10" height="8" viewBox="0 0 10 8" fill="none" xmlns="http://www.w3.org/2000/svg">
<path d="M4.93026 7.88672L4.3248 7.33984C3.63469 6.71484 3.13339 6.2526 2.82089 5.95312C2.50839 5.65365 2.15683 5.28255 1.7662 4.83984C1.3886 4.39714 1.12818 4 0.984952 3.64844C0.841723 3.28385 0.770108 2.91276 0.770108 2.53516C0.770108 1.89714 0.984952 1.35677 1.41464 0.914062C1.85735 0.471354 2.40422 0.25 3.05526 0.25C3.81047 0.25 4.43547 0.542969 4.93026 1.12891C5.42506 0.542969 6.05006 0.25 6.80526 0.25C7.45631 0.25 7.99667 0.471354 8.42636 0.914062C8.86907 1.35677 9.09042 1.89714 9.09042 2.53516C9.09042 3.04297 8.92115 3.57031 8.58261 4.11719C8.24407 4.66406 7.87297 5.13932 7.46933 5.54297C7.0787 5.94661 6.43417 6.55208 5.53573 7.35938L4.93026 7.88672Z" fill="#BC9CFF"/>
</svg>

<svg xmlns="http://www.w3.org/2000/svg" width="10" height="8" fill="none"><path fill="#BC9CFF" d="M4.93 7.89l-.6-.55c-.7-.63-1.2-1.09-1.5-1.39-.32-.3-.67-.67-1.06-1.11a4.6 4.6 0 01-.79-1.2 3.02 3.02 0 01-.21-1.1A2.24 2.24 0 013.06.25c.75 0 1.38.3 1.87.88.5-.59 1.12-.88 1.88-.88.65 0 1.19.22 1.62.66.44.45.66.99.66 1.63 0 .5-.17 1.03-.5 1.58a7.84 7.84 0 01-1.12 1.42c-.4.4-1.04 1.01-1.93 1.82l-.61.53z"/></svg>
